dist/img/footer/tw.svg

<svg width="22" height="19" viewBox="0 0 22 19" fill="none" xmlns="http://www.w3.org/2000/svg">
<path d="M22 2.24965C21.1909 2.63058 20.3218 2.88798 19.4082 3.00432C20.3402 2.4113 21.0553 1.47022 21.3925 0.350023C20.5205 0.89985 19.5545 1.29931 18.5265 1.51346C17.7029 0.582751 16.5305 0 15.2322 0C12.7401 0 10.719 2.14771 10.719 4.79787C10.7191 5.16516 10.7581 5.53126 10.8353 5.88927C7.08273 5.68846 3.75838 3.77856 1.53184 0.877197C1.14432 1.58761 0.921428 2.4113 0.921428 3.28849C0.921428 4.95227 1.71888 6.42153 2.929 7.28126C2.21228 7.257 1.51138 7.0512 0.884618 6.68099V6.74276C0.884618 9.06651 2.43972 11.0053 4.50543 11.4459C4.11781 11.5571 3.71805 11.6132 3.31657 11.6127C3.03147 11.613 2.74698 11.5847 2.46687 11.5283C3.04142 13.433 4.70795 14.8209 6.68355 14.858C5.13811 16.1449 3.1916 16.912 1.07743 16.912C0.713123 16.912 0.353648 16.8893 0 16.845C1.99791 18.2073 4.36979 19 6.918 19C15.2215 19 19.7609 11.692 19.7609 5.35384C19.7609 5.14795 19.756 4.93994 19.7473 4.73404C20.629 4.05655 21.3944 3.21333 21.998 2.25272L22 2.24965Z" fill="white"/>
</svg>

<svg width="22" height="19" fill="none" xmlns="http://www.w3.org/2000/svg"><path d="M22 2.25a8.65 8.65 0 0 1-2.592.754A4.77 4.77 0 0 0 21.392.35c-.872.55-1.837.95-2.866 1.163C17.703.583 16.531 0 15.232 0 12.74 0 10.72 2.148 10.72 4.798c0 .367.04.733.116 1.091-3.752-.2-7.077-2.11-9.303-5.012a5.027 5.027 0 0 0-.61 2.411c0 1.664.797 3.134 2.007 3.993a4.302 4.302 0 0 1-2.044-.6v.062c0 2.324 1.555 4.262 3.62 4.703a4.29 4.29 0 0 1-2.038.082c.574 1.905 2.241 3.293 4.217 3.33-1.546 1.287-3.492 2.054-5.607 2.054-.364 0-.723-.023-1.077-.067C1.998 18.207 4.37 19 6.918 19c8.303 0 12.843-7.308 12.843-13.646 0-.206-.005-.414-.014-.62a9.516 9.516 0 0 0 2.251-2.481L22 2.25Z" fill="#fff"/></svg>
